packages/Iconly/src/Wallet2Icon/index.svg

<svg xmlns="http://www.w3.org/2000/svg" width="24" height="24" viewBox="0 0 24 24"><g fill="#200E32" fill-rule="nonzero" transform="translate(2 3)"><path d="M14.5137778,0 C17.96,0 19.9964444,1.97862198 19.9964444,5.33785931 L19.9964444,5.33785931 L19.9964444,5.37512639 L15.7617778,5.37512639 C13.7911111,5.3785931 12.1946667,6.93514372 12.1911111,8.85656507 C12.1884444,10.7823198 13.7866667,12.3458038 15.7617778,12.3484039 L15.7617778,12.3484039 L20,12.3484039 L20,12.6543406 C20,16.0135779 17.9635556,18 14.5173333,18 L14.5173333,18 L5.48355556,18 C2.03644444,18 0,16.0135779 0,12.6543406 L0,12.6543406 L0,5.33785931 C0,1.97862198 2.03644444,0 5.48355556,0 L5.48355556,0 Z M10.3831111,3.87490298 L4.73955556,3.87490298 C4.32,3.87664307 3.97955556,4.2085801 3.97777086,4.61851798 C3.976,5.03018922 4.31733333,5.36559295 4.73955556,5.3673263 L4.73955556,5.3673263 L10.3902222,5.3673263 C10.8124444,5.36559295 11.1537778,5.03018922 11.1520069,4.61765131 C11.1502222,4.20598007 10.8053333,3.87317637 10.3831111,3.87490298 L10.3831111,3.87490298 Z"/><path d="M14.0374068,9.29666807 C14.2465311,10.2478511 15.0804781,10.9170733 16.0325888,10.8996683 L19.2825166,10.8996683 C19.6786626,10.8996683 20,10.5715841 20,10.1660477 L20,7.63449087 C19.9991499,7.22982469 19.6786626,6.90087025 19.2825166,6.9 L15.9560799,6.9 C14.873054,6.903481 13.9983023,7.80244909 14,8.91027714 C14,9.03994436 14.012754,9.16961159 14.0374068,9.29666807" opacity=".4"/><circle cx="16" cy="8.9" r="1"/></g></svg>

<svg xmlns="http://www.w3.org/2000/svg" viewBox="0 0 24 24">
  <g fill="#200E32" transform="translate(2 3)">
    <path d="M14.514 0c3.446 0 5.482 1.979 5.482 5.338v.037h-4.234c-1.97.004-3.567 1.56-3.57 3.482-.004 1.925 1.595 3.489 3.57 3.491H20v.306C20 16.014 17.964 18 14.517 18H5.484C2.036 18 0 16.014 0 12.654V5.338C0 1.978 2.036 0 5.484 0zm-4.13 3.875H4.74a.756.756 0 00-.762.744.756.756 0 00.762.748h5.65a.756.756 0 00.762-.75.757.757 0 00-.769-.742z"/>
    <path d="M14.037 9.297c.21.95 1.043 1.62 1.996 1.603h3.25a.726.726 0 00.717-.734V7.634a.728.728 0 00-.717-.734h-3.327c-1.083.003-1.958.902-1.956 2.01 0 .13.013.26.037.387" opacity=".4"/>
    <circle cx="16" cy="8.9" r="1"/>
  </g>
</svg>
